Origami/24x24/apps/flightgear.svg

<svg width="24" height="24" version="1" xmlns="http://www.w3.org/2000/svg">
 <rect transform="matrix(0,-1,-1,0,0,0)" x="-22.5" y="-22" width="20" height="20" rx="1.5" ry="1.5" style="opacity:.2"/>
 <rect transform="matrix(0,-1,-1,0,0,0)" x="-22" y="-22" width="20" height="20" rx="1.5" ry="1.5" style="fill:#1e87e4"/>
 <path d="m3.5 2c-0.831 0-1.5 0.669-1.5 1.5v0.5c0-0.831 0.669-1.5 1.5-1.5h17c0.831 0 1.5 0.669 1.5 1.5v-0.5c0-0.831-0.669-1.5-1.5-1.5h-17z" style="fill:#ffffff;opacity:.2"/>
 <path d="m20.001 5.3363q0 0.9965-1.707 2.7031l-2.748 2.7486 1.637 8.544 0.012 0.069q0 0.16-0.103 0.264l-0.734 0.733q-0.103 0.102-0.263 0.102-0.241 0-0.332-0.205l-3.138-6.587-2.8066 2.806q0.7786 2.727 0.7786 2.887t-0.103 0.263l-0.7329 0.734q-0.1031 0.102-0.2634 0.102-0.2062 0-0.3207-0.184l-1.7753-3.207-3.2069-1.775q-0.1948-0.102-0.1948-0.321 0-0.16 0.1031-0.263l0.733-0.744q0.1031-0.103 0.2635-0.103 0.1603 0 2.8863 0.779l2.8061-2.806-6.5858-3.1384q-0.2062-0.0915-0.2062-0.3322 0-0.1603 0.1031-0.2634l0.733-0.7329q0.1031-0.1029 0.2635-0.1029 0.0458 0 0.0687 0.0114l8.5447 1.6378 2.748-2.7488q1.708-1.7066 2.703-1.7066 0.367 0 0.602 0.2348 0.235 0.2347 0.235 0.6013z" style="fill:#2873b4"/>
 <path d="m20.001 4.8363q0 0.9965-1.707 2.7031l-2.748 2.7486 1.637 8.544 0.012 0.069q0 0.16-0.103 0.264l-0.734 0.733q-0.103 0.102-0.263 0.102-0.241 0-0.332-0.205l-3.138-6.587-2.8066 2.806q0.7786 2.727 0.7786 2.887t-0.103 0.263l-0.7329 0.734q-0.1031 0.102-0.2634 0.102-0.2062 0-0.3207-0.184l-1.7753-3.207-3.2069-1.775q-0.1948-0.102-0.1948-0.321 0-0.16 0.1031-0.263l0.733-0.744q0.1031-0.103 0.2635-0.103 0.1603 0 2.8863 0.779l2.8061-2.806-6.5858-3.1384q-0.2062-0.0915-0.2062-0.3322 0-0.1603 0.1031-0.2634l0.733-0.7329q0.1031-0.1029 0.2635-0.1029 0.0458 0 0.0687 0.0114l8.5447 1.6378 2.748-2.7488q1.708-1.7066 2.703-1.7066 0.367 0 0.602 0.2348 0.235 0.2347 0.235 0.6013z" style="fill:#ffffff"/>
</svg>

<svg xmlns="http://www.w3.org/2000/svg" width="24" height="24" version="1">
 <rect style="opacity:0.2" width="20" height="20" x="-22.5" y="-22" rx="1.5" ry="1.5" transform="matrix(0,-1,-1,0,0,0)"/>
 <rect style="fill:#1e87e4" width="20" height="20" x="-22" y="-22" rx="1.5" ry="1.5" transform="matrix(0,-1,-1,0,0,0)"/>
 <path style="opacity:0.2;fill:#ffffff" d="m3.5 2c-0.831 0-1.5 0.669-1.5 1.5v0.5c0-0.831 0.669-1.5 1.5-1.5h17c0.831 0 1.5 0.669 1.5 1.5v-0.5c0-0.831-0.669-1.5-1.5-1.5h-17z"/>
 <path style="fill:#2873b4" d="M 20.001,5.3363 Q 20.001,6.3328 18.294,8.0394 L 15.546,10.788 17.183,19.332 17.195,19.401 Q 17.195,19.561 17.092,19.665 L 16.358,20.398 Q 16.255,20.5 16.095,20.5 15.854,20.5 15.763,20.295 L 12.625,13.708 9.8184,16.514 Q 10.597,19.241 10.597,19.401 10.597,19.561 10.494,19.664 L 9.7611,20.398 Q 9.658,20.5 9.4977,20.5 9.2915,20.5 9.177,20.316 L 7.4017,17.109 4.1948,15.334 Q 4,15.232 4,15.013 4,14.853 4.1031,14.75 L 4.8361,14.006 Q 4.9392,13.903 5.0996,13.903 5.2599,13.903 7.9859,14.682 L 10.792,11.876 4.2062,8.7376 Q 4,8.6461 4,8.4054 4,8.2451 4.1031,8.142 L 4.8361,7.4091 Q 4.9392,7.3062 5.0996,7.3062 5.1454,7.3062 5.1683,7.3176 L 13.713,8.9554 16.461,6.2066 Q 18.169,4.5 19.164,4.5 19.531,4.5 19.766,4.7348 20.001,4.9695 20.001,5.3361 Z"/>
 <path style="fill:#ffffff" d="M 20.001,4.8363 Q 20.001,5.8328 18.294,7.5394 L 15.546,10.288 17.183,18.832 17.195,18.901 Q 17.195,19.061 17.092,19.165 L 16.358,19.898 Q 16.255,20 16.095,20 15.854,20 15.763,19.795 L 12.625,13.208 9.8184,16.014 Q 10.597,18.741 10.597,18.901 10.597,19.061 10.494,19.164 L 9.7611,19.898 Q 9.658,20 9.4977,20 9.2915,20 9.177,19.816 L 7.4017,16.609 4.1948,14.834 Q 4,14.732 4,14.513 4,14.353 4.1031,14.25 L 4.8361,13.506 Q 4.9392,13.403 5.0996,13.403 5.2599,13.403 7.9859,14.182 L 10.792,11.376 4.2062,8.2376 Q 4,8.1461 4,7.9054 4,7.7451 4.1031,7.642 L 4.8361,6.9091 Q 4.9392,6.8062 5.0996,6.8062 5.1454,6.8062 5.1683,6.8176 L 13.713,8.4554 16.461,5.7066 Q 18.169,4 19.164,4 19.531,4 19.766,4.2348 20.001,4.4695 20.001,4.8361 Z"/>
</svg>
